X: 1
T: Monster Cafe 1(tunebook version)
R: bourrée
M: 2/4
L: 1/8
K: Gdor
|: dc BA | ^F2 A/F/A/B/ | cG Bd | fe dA | 
dc BA | ^F2 A/F/A/B/ | cB AG | cB AG :| 
K: Gmin 
|: d2 d2 | d c2 d | f2 f2| f d2 d | 
ed cB | A2 dc | BAGA  |1 G>A BG:|2  G4 || 


